packages/tokens/icons/idea/size16Px.svg

<svg viewBox="0 0 16 16" fill="none" xmlns="http://www.w3.org/2000/svg" width="1em" height="1em"><path d="M7 13.5C7 14.0523 7.44772 14.5 8 14.5C8.55228 14.5 9 14.0523 9 13.5" stroke="currentColor" stroke-linecap="round" stroke-linejoin="round"/><path d="M11.5 7.05C11.5 8.20833 10.9538 9.23537 10.109 9.88341C9.82909 10.0981 9.53089 10.3663 9.31281 10.7201L9.2686 10.7918C8.99723 11.232 8.5171 11.5 8 11.5C7.48291 11.5 7.00277 11.232 6.73141 10.7918L6.6872 10.7201C6.46912 10.3663 6.17092 10.0981 5.89101 9.88341C5.04625 9.23537 4.5 8.20833 4.5 7.05C4.5 5.08351 6.07284 3.5 8 3.5C9.92716 3.5 11.5 5.08351 11.5 7.05Z" stroke="currentColor"/><path d="M2.5 7.5L2 7.5" stroke="currentColor" stroke-linecap="round"/><path d="M3.5 3.5L3.00001 3" stroke="currentColor" stroke-linecap="round"/><path d="M14 7.5L13.5 7.5" stroke="currentColor" stroke-linecap="round"/><path d="M13 3L12.5 3.5" stroke="currentColor" stroke-linecap="round"/><path d="M8 2L8 1.5" stroke="currentColor" stroke-linecap="round"/></svg>

<svg xmlns="http://www.w3.org/2000/svg" fill="none" viewBox="0 0 16 16" width="1em" height="1em"><path stroke="currentColor" stroke-linecap="round" stroke-linejoin="round" d="M7 13.5a1 1 0 1 0 2 0"/><path stroke="currentColor" d="M11.5 7.05a3.56 3.56 0 0 1-1.391 2.833c-.28.215-.578.483-.796.837l-.044.072a1.49 1.49 0 0 1-2.538 0l-.044-.072c-.218-.354-.516-.622-.796-.837A3.56 3.56 0 0 1 4.5 7.05C4.5 5.084 6.073 3.5 8 3.5s3.5 1.584 3.5 3.55Z"/><path stroke="currentColor" stroke-linecap="round" d="M2.5 7.5H2m1.5-4L3 3m11 4.5h-.5M13 3l-.5.5M8 2v-.5"/></svg>
